X:551
T: "Mahnung"
N: Z1231
O: Europa, Mitteleuropa, Deutschland, Boehmen
R: Liebes - Lied, verlassene Liebe
M: 3/4
L: 1/8
K: Bb
Fd | d2cFec | c2B2
de | f2ecge | e2d2
Fd | d2cFec | c2B2
de | f2ecge | e2d2
df | f2ecge | e2dB
fd | d2cFec | c2B2
df | f2ecge | e2dB
fd | d2cFec | c2B2

@@@ Tune index: 10309
